img/school/self-service/3.svg

<svg width="89" height="117" viewBox="0 0 89 117" fill="none" xmlns="http://www.w3.org/2000/svg">
<path d="M75.3201 25.4182V102.628C75.3201 103.668 74.9071 104.665 74.1719 105.4C73.4368 106.135 72.4397 106.548 71.4001 106.548H5.00006C3.96041 106.548 2.96335 106.135 2.22821 105.4C1.49307 104.665 1.08008 103.668 1.08008 102.628V15.5781C1.08008 14.5385 1.49307 13.5414 2.22821 12.8063C2.96335 12.0711 3.96041 11.6582 5.00006 11.6582H63.3101" stroke="#009245" stroke-width="2" stroke-miterlimit="10"/>
<path d="M45.79 19.8887H11.98C10.4612 19.8887 9.22998 21.1199 9.22998 22.6387V82.2286C9.22998 83.7474 10.4612 84.9786 11.98 84.9786H45.79C47.3088 84.9786 48.54 83.7474 48.54 82.2286V22.6387C48.54 21.1199 47.3088 19.8887 45.79 19.8887Z" stroke="#009245" stroke-width="2" stroke-miterlimit="10"/>
<path d="M8.95996 37.5879H48.5399" stroke="#009245" stroke-width="2" stroke-miterlimit="10"/>
<path d="M8.95996 56.6484H48.5399" stroke="#009245" stroke-width="2" stroke-miterlimit="10"/>
<path d="M8.95996 76.8477H48.5399" stroke="#009245" stroke-width="2" stroke-miterlimit="10"/>
<path d="M20.3601 64.8379H15.5901C15.0544 64.8379 14.6201 65.2723 14.6201 65.808V75.8779C14.6201 76.4136 15.0544 76.8479 15.5901 76.8479H20.3601C20.8958 76.8479 21.3301 76.4136 21.3301 75.8779V65.808C21.3301 65.2723 20.8958 64.8379 20.3601 64.8379Z" stroke="#009245" stroke-width="2" stroke-miterlimit="10"/>
<path d="M31.1399 64.8379H26.3699C25.8342 64.8379 25.3999 65.2723 25.3999 65.808V75.8779C25.3999 76.4136 25.8342 76.8479 26.3699 76.8479H31.1399C31.6756 76.8479 32.1099 76.4136 32.1099 75.8779V65.808C32.1099 65.2723 31.6756 64.8379 31.1399 64.8379Z" stroke="#009245" stroke-width="2" stroke-miterlimit="10"/>
<path d="M41.9402 64.8379H37.1702C36.6344 64.8379 36.2002 65.2723 36.2002 65.808V75.8779C36.2002 76.4136 36.6344 76.8479 37.1702 76.8479H41.9402C42.4759 76.8479 42.9102 76.4136 42.9102 75.8779V65.808C42.9102 65.2723 42.4759 64.8379 41.9402 64.8379Z" stroke="#009245" stroke-width="2" stroke-miterlimit="10"/>
<path d="M41.9402 44.5879H37.1702C36.6344 44.5879 36.2002 45.0223 36.2002 45.558V55.6279C36.2002 56.1636 36.6344 56.5979 37.1702 56.5979H41.9402C42.4759 56.5979 42.9102 56.1636 42.9102 55.6279V45.558C42.9102 45.0223 42.4759 44.5879 41.9402 44.5879Z" stroke="#009245" stroke-width="2" stroke-miterlimit="10"/>
<path d="M31.1399 44.5879H26.3699C25.8342 44.5879 25.3999 45.0223 25.3999 45.558V55.6279C25.3999 56.1636 25.8342 56.5979 26.3699 56.5979H31.1399C31.6756 56.5979 32.1099 56.1636 32.1099 55.6279V45.558C32.1099 45.0223 31.6756 44.5879 31.1399 44.5879Z" stroke="#009245" stroke-width="2" stroke-miterlimit="10"/>
<path d="M20.3601 44.5879H15.5901C15.0544 44.5879 14.6201 45.0223 14.6201 45.558V55.6279C14.6201 56.1636 15.0544 56.5979 15.5901 56.5979H20.3601C20.8958 56.5979 21.3301 56.1636 21.3301 55.6279V45.558C21.3301 45.0223 20.8958 44.5879 20.3601 44.5879Z" stroke="#009245" stroke-width="2" stroke-miterlimit="10"/>
<path d="M20.3601 25.4883H15.5901C15.0544 25.4883 14.6201 25.9225 14.6201 26.4583V36.5283C14.6201 37.064 15.0544 37.4983 15.5901 37.4983H20.3601C20.8958 37.4983 21.3301 37.064 21.3301 36.5283V26.4583C21.3301 25.9225 20.8958 25.4883 20.3601 25.4883Z" stroke="#009245" stroke-width="2" stroke-miterlimit="10"/>
<path d="M31.1399 25.4883H26.3699C25.8342 25.4883 25.3999 25.9225 25.3999 26.4583V36.5283C25.3999 37.064 25.8342 37.4983 26.3699 37.4983H31.1399C31.6756 37.4983 32.1099 37.064 32.1099 36.5283V26.4583C32.1099 25.9225 31.6756 25.4883 31.1399 25.4883Z" stroke="#009245" stroke-width="2" stroke-miterlimit="10"/>
<path d="M15.86 107.998V112.648C15.8574 113.516 15.5106 114.348 14.8958 114.961C14.281 115.574 13.4483 115.918 12.5801 115.918C11.7136 115.915 10.8834 115.57 10.2708 114.957C9.65808 114.345 9.3127 113.515 9.31006 112.648V107.998H15.86Z" stroke="#009245" stroke-width="2" stroke-miterlimit="10"/>
<path d="M67.1201 107.998V112.648C67.1201 113.515 66.7755 114.347 66.1623 114.96C65.549 115.574 64.7173 115.918 63.85 115.918C62.9828 115.918 62.1511 115.574 61.5378 114.96C60.9246 114.347 60.5801 113.515 60.5801 112.648V107.998H67.1201Z" stroke="#009245" stroke-width="2" stroke-miterlimit="10"/>
<path d="M41.9402 25.4883H37.1702C36.6344 25.4883 36.2002 25.9225 36.2002 26.4583V36.5283C36.2002 37.064 36.6344 37.4983 37.1702 37.4983H41.9402C42.4759 37.4983 42.9102 37.064 42.9102 36.5283V26.4583C42.9102 25.9225 42.4759 25.4883 41.9402 25.4883Z" stroke="#009245" stroke-width="2" stroke-miterlimit="10"/>
<path d="M36.4698 91.6973H21.0598C19.8337 91.6973 18.8398 92.6913 18.8398 93.9174V97.5673C18.8398 98.7933 19.8337 99.7874 21.0598 99.7874H36.4698C37.6959 99.7874 38.6898 98.7933 38.6898 97.5673V93.9174C38.6898 92.6913 37.6959 91.6973 36.4698 91.6973Z" stroke="#009245" stroke-width="2" stroke-miterlimit="10"/>
<path d="M55.6001 11.6582V106.548" stroke="#009245" stroke-width="2" stroke-miterlimit="10"/>
<path d="M62.5 47.1484V49.4984" stroke="#009245" stroke-width="2" stroke-miterlimit="10" stroke-linecap="round"/>
<path d="M67.2197 47.1484V49.4984" stroke="#009245" stroke-width="2" stroke-miterlimit="10" stroke-linecap="round"/>
<path d="M62.5 52.5781V54.9381" stroke="#009245" stroke-width="2" stroke-miterlimit="10" stroke-linecap="round"/>
<path d="M67.2197 52.5781V54.9381" stroke="#009245" stroke-width="2" stroke-miterlimit="10" stroke-linecap="round"/>
<path d="M60.3599 60.6582H69.2699" stroke="#009245" stroke-width="2" stroke-miterlimit="10" stroke-linecap="round"/>
<path d="M68.7399 29.6289H61.5199C60.9013 29.6289 60.3999 30.1303 60.3999 30.7489V41.9889C60.3999 42.6075 60.9013 43.1089 61.5199 43.1089H68.7399C69.3584 43.1089 69.8599 42.6075 69.8599 41.9889V30.7489C69.8599 30.1303 69.3584 29.6289 68.7399 29.6289Z" stroke="#009245" stroke-width="2" stroke-miterlimit="10" stroke-linecap="round"/>
<path d="M75.3201 25.4176C81.942 25.4176 87.3101 20.0495 87.3101 13.4276C87.3101 6.80572 81.942 1.4375 75.3201 1.4375C68.6982 1.4375 63.3301 6.80572 63.3301 13.4276C63.3301 20.0495 68.6982 25.4176 75.3201 25.4176Z" stroke="#009245" stroke-width="2" stroke-miterlimit="10"/>
<path d="M69.8599 12.1985L75.2099 17.5486L80.7399 9.30859" stroke="#009245" stroke-width="2" stroke-linecap="round" stroke-linejoin="round"/>
</svg>

<svg width="89" height="117" fill="none" xmlns="http://www.w3.org/2000/svg"><path d="M75.32 25.418v77.21a3.92 3.92 0 01-3.92 3.92H5a3.92 3.92 0 01-3.92-3.92v-87.05A3.92 3.92 0 015 11.658h58.31" stroke="#009245" stroke-width="2" stroke-miterlimit="10"/><path d="M45.79 19.889H11.98a2.75 2.75 0 00-2.75 2.75v59.59a2.75 2.75 0 002.75 2.75h33.81a2.75 2.75 0 002.75-2.75v-59.59a2.75 2.75 0 00-2.75-2.75zM8.96 37.588h39.58M8.96 56.648h39.58m-39.58 20.2h39.58" stroke="#009245" stroke-width="2" stroke-miterlimit="10"/><path d="M20.36 64.838h-4.77a.97.97 0 00-.97.97v10.07c0 .536.434.97.97.97h4.77a.97.97 0 00.97-.97v-10.07a.97.97 0 00-.97-.97zm10.78 0h-4.77a.97.97 0 00-.97.97v10.07c0 .536.434.97.97.97h4.77a.97.97 0 00.97-.97v-10.07a.97.97 0 00-.97-.97zm10.8 0h-4.77a.97.97 0 00-.97.97v10.07c0 .536.434.97.97.97h4.77a.97.97 0 00.97-.97v-10.07a.97.97 0 00-.97-.97zm0-20.25h-4.77a.97.97 0 00-.97.97v10.07c0 .536.434.97.97.97h4.77a.97.97 0 00.97-.97v-10.07a.97.97 0 00-.97-.97zm-10.8 0h-4.77a.97.97 0 00-.97.97v10.07c0 .536.434.97.97.97h4.77a.97.97 0 00.97-.97v-10.07a.97.97 0 00-.97-.97zm-10.78 0h-4.77a.97.97 0 00-.97.97v10.07c0 .536.434.97.97.97h4.77a.97.97 0 00.97-.97v-10.07a.97.97 0 00-.97-.97zm0-19.1h-4.77a.97.97 0 00-.97.97v10.07c0 .536.434.97.97.97h4.77a.97.97 0 00.97-.97v-10.07a.97.97 0 00-.97-.97zm10.78 0h-4.77a.97.97 0 00-.97.97v10.07c0 .536.434.97.97.97h4.77a.97.97 0 00.97-.97v-10.07a.97.97 0 00-.97-.97zm-15.28 82.51v4.65a3.28 3.28 0 01-3.28 3.27 3.28 3.28 0 01-3.27-3.27v-4.65h6.55zm51.26 0v4.65a3.27 3.27 0 01-6.54 0v-4.65h6.54zm-25.18-82.51h-4.77a.97.97 0 00-.97.97v10.07c0 .536.434.97.97.97h4.77a.97.97 0 00.97-.97v-10.07a.97.97 0 00-.97-.97zm-5.47 66.209H21.06a2.22 2.22 0 00-2.22 2.22v3.65a2.22 2.22 0 002.22 2.22h15.41a2.22 2.22 0 002.22-2.22v-3.65a2.22 2.22 0 00-2.22-2.22zM55.6 11.658v94.89" stroke="#009245" stroke-width="2" stroke-miterlimit="10"/><path d="M62.5 47.148v2.35m4.72-2.35v2.35m-4.72 3.08v2.36m4.72-2.36v2.36m-6.86 5.72h8.91m-.53-31.029h-7.22a1.12 1.12 0 00-1.12 1.12v11.24c0 .619.501 1.12 1.12 1.12h7.22a1.12 1.12 0 001.12-1.12v-11.24a1.12 1.12 0 00-1.12-1.12z" stroke="#009245" stroke-width="2" stroke-miterlimit="10" stroke-linecap="round"/><path d="M75.32 25.418c6.622 0 11.99-5.369 11.99-11.99 0-6.622-5.368-11.99-11.99-11.99s-11.99 5.368-11.99 11.99c0 6.621 5.368 11.99 11.99 11.99z" stroke="#009245" stroke-width="2" stroke-miterlimit="10"/><path d="M69.86 12.198l5.35 5.35 5.53-8.24" stroke="#009245" stroke-width="2" stroke-linecap="round" stroke-linejoin="round"/></svg>
